X:1
T:Title
%%score { ( 1 4 ) | ( 2 3 ) }
L:1/8
Q:1/4=100
M:3/4
K:A
V:1 treble nm="Grand Piano"
V:4 treble 
V:2 bass 
V:3 bass 
V:1
 [CE]4 [DF]>[CE] | [CE]2 A2 c2 | B3 A [Ec]B | [CEA]2 [A,CE]2 z2 | [A,CE]4 [A,DF]>[A,CE] | %5
w: A.~B.~Everett * *|||||
 [A,CE]2 [EA]2 [Ec]2 | [EB]3 [^DA] FG | E4 z2 | E2 e2 c2 | c4 A-[A,A] | A2 G2 [FA][DF] | %11
w: ||||||
 [DF]2 [CE]2 z2 | [CE]2 [CEA]2 [Ec]2 | e3 c [CEA]B | c3 d B2 | [CA]6 |] %16
w: |||||
V:2
 [A,,A,]4 [A,,A,]>[A,,A,] | A,,2- [A,,CE]2 [A,E]2 | D3 C z D | A,,2 A,,2 z2 | A,,4 A,,>A,, | %5
 z2 C2 [A,,A,]2 | G,3 A, B,,2 | [E,G,]4 z2 | [A,C]2 [A,CA]2 [A,EA]2 | [A,EA]4[K:bass] C,2 | %10
 [D,A,]4 [D,A,]2 | [A,,A,]2 [A,,A,]2 z2 | [A,,A,]2 A,,2 [A,,A,]2 | [CE]3 E C,[D,B,] | %14
 [E,E]3- [E,B,E] [E,G,D]2 | [A,,A,]6 |] %16
V:3
 x6 | A,2 z2 z2 | [E,E]4 E,2 | x6 | x6 | A,,4 z2 | B,,4 z2 | x6 | x6 | x4[K:bass] x2 | x6 | x6 | %12
 x6 | A,4 z2 | A,4 z2 | x6 |] %16
V:4
 x6 | x6 | x6 | x6 | x6 | x6 | z2 z2 [B,^D]2 | x6 | x6 | z2 z2 .E2 | x6 | x6 | x6 | x6 | x6 | x6 |] %16

